X:351
T: ES WOLLT EIN HERR AUSREITEN
N: E0199
O: Europa, Mitteleuropa, Deutschland, Schlesien, Kreis Neisse
R: erzaehlendes Volks - Lied, Tod, Toten - Sage, Grabesstimme
M: 6/8
L: 1/16
K: Eb
B,2 | E4F2G4A2 | G4F2E4
B,2 | E4F2G4A2 | G4F2E4
E2 | A4G2G2F2E2 | F2F2E2D4
E2 | G4GAG2F2E2 | G4F2E4

@@@ Tune index: 4001
